icon/mi/telephone.svg

<?xml version="1.0" encoding="UTF-8"?>
<svg xmlns="http://www.w3.org/2000/svg" viewBox="0 0 15 15" id="telephone" height="1em" width="1em">
  <path d="M4.51,8.88a0.51,0.51,0,0,0,0,.72l0.72,0.72L3.07,12.5,2.7,12.13A2.24,2.24,0,0,1,2,10.69V9.24a2.24,2.24,0,0,1,.7-1.45L7.77,2.72A2.24,2.24,0,0,1,9.22,2h1.45a2.24,2.24,0,0,1,1.45.72l0.36,0.36L10.31,5.26,9.58,4.53a0.51,0.51,0,0,0-.72,0ZM4.13,13.6a1,1,0,0,0,1.4137.0363Q5.5623,13.6186,5.58,13.6l0.72-.72a1,1,0,0,0,.0363-1.4137Q6.3186,11.4477,6.3,11.43Zm7.25-7.28a1,1,0,0,0,1.4137.0363C12.8061,6.3445,13.55,5.6,13.55,5.6a1,1,0,0,0,.0363-1.4137Q13.5686,4.1677,13.55,4.15Z"/>
</svg>

<svg xmlns="http://www.w3.org/2000/svg" width="15" height="15"><path d="M4.51 8.88a.51.51 0 0 0 0 .72l.72.72-2.16 2.18-.37-.37a2.24 2.24 0 0 1-.7-1.44V9.24a2.24 2.24 0 0 1 .7-1.45l5.07-5.07A2.24 2.24 0 0 1 9.22 2h1.45a2.24 2.24 0 0 1 1.45.72l.36.36-2.17 2.18-.73-.73a.51.51 0 0 0-.72 0Zm-.38 4.72a1 1 0 0 0 1.414.036l.036-.036.72-.72a1 1 0 0 0 .036-1.414L6.3 11.43Zm7.25-7.28a1 1 0 0 0 1.414.036l.756-.756a1 1 0 0 0 .036-1.414l-.036-.036Z"/></svg>
